Papirus/48x48/apps/speedcrunch.svg

<svg width="48" height="48" version="1" xmlns="http://www.w3.org/2000/svg">
 <path d="m40 42v-36c0-1.108-0.892-2-2-2h-28c-1.108 0-2 0.892-2 2v36c0 1.108 0.892 2 2 2h28c1.108 0 2-0.892 2-2z" style="fill:#4a1a3a"/>
 <path d="m9.9998 4c-1.108 0-2 0.892-2 2v1c0-1.108 0.892-2 2-2h28c1.108 0 2 0.892 2 2v-1c0-1.108-0.892-2-2-2z" fill="#fff" opacity=".1"/>
 <path d="m8.0002 42v1c0 1.108 0.892 2 2 2h28c1.108 0 2-0.892 2-2v-1c0 1.108-0.892 2-2 2h-28c-1.1074 0-1.9994-0.892-1.9994-2z" opacity=".2"/>
 <circle cx="36" cy="37" r="11" opacity=".2"/>
 <path d="m8 36v6c0 1.108 0.892 2 2 2h28c1.108 0 2-0.892 2-2v-6h-32z" style="fill:#3b1530"/>
 <rect x="11" y="11" width="22" height="1" style="fill-opacity:.11764706"/>
 <rect x="11" y="9" width="22" height="2" style="fill:#e4e4e4"/>
 <rect x="14" y="15" width="19" height="1" style="fill-opacity:.11764706"/>
 <rect x="14" y="13" width="19" height="2" style="fill:#667b9e"/>
 <rect x="11" y="20" width="22" height="1" style="fill-opacity:.11764706"/>
 <rect x="11" y="18" width="22" height="2" style="fill:#e4e4e4"/>
 <rect x="14" y="24" width="19" height="1" style="fill-opacity:.11764706"/>
 <rect x="14" y="22" width="19" height="2" style="fill:#667b9e"/>
 <rect x="11" y="29" width="22" height="1" style="fill-opacity:.11764706"/>
 <rect x="11" y="27" width="22" height="2" style="fill:#e4e4e4"/>
 <rect x="14" y="33" width="19" height="1" style="fill-opacity:.11764706"/>
 <rect x="14" y="31" width="19" height="2" style="fill:#667b9e"/>
 <circle cx="36" cy="36" r="11" style="fill:#d38b2e"/>
 <path d="m30 32v2h12v-2zm0 6v2h12v-2z" style="fill:#ffffff"/>
</svg>

<svg xmlns="http://www.w3.org/2000/svg" width="48" height="48" version="1">
 <rect width="32" height="40" x="8" y="5" rx="2" ry="2" style="opacity:0.2"/>
 <rect style="fill:#4a1a3a" width="32" height="40" x="8" y="4" rx="2" ry="2"/>
 <circle opacity=".2" cx="36" cy="37" r="11"/>
 <path style="fill:#3b1530" d="M 8 36 L 8 42 C 8 43.108 8.892 44 10 44 L 38 44 C 39.108 44 40 43.108 40 42 L 40 36 L 8 36 z"/>
 <rect width="22" height="2" x="11" y="10" style="opacity:0.2"/>
 <rect width="22" height="2" x="11" y="9" style="fill:#e4e4e4"/>
 <rect width="19" height="2" x="14" y="14" style="opacity:0.2"/>
 <rect width="19" height="2" x="14" y="13" style="fill:#667b9e"/>
 <rect width="22" height="2" x="11" y="19" style="opacity:0.2"/>
 <rect width="22" height="2" x="11" y="18" style="fill:#e4e4e4"/>
 <rect width="19" height="2" x="14" y="23" style="opacity:0.2"/>
 <rect width="19" height="2" x="14" y="22" style="fill:#667b9e"/>
 <rect width="22" height="2" x="11" y="28" style="opacity:0.2"/>
 <rect width="22" height="2" x="11" y="27" style="fill:#e4e4e4"/>
 <rect width="19" height="2" x="14" y="32" style="opacity:0.2"/>
 <rect width="19" height="2" x="14" y="31" style="fill:#667b9e"/>
 <circle cx="36" cy="36" r="11" style="fill:#d38b2e"/>
 <path d="m30 32v2h12v-2zm0 6v2h12v-2z" style="fill:#ffffff"/>
 <path style="opacity:0.1;fill:#ffffff" d="M 10 4 C 8.892 4 8 4.892 8 6 L 8 7 C 8 5.892 8.892 5 10 5 L 38 5 C 39.108 5 40 5.892 40 7 L 40 6 C 40 4.892 39.108 4 38 4 L 10 4 z"/>
</svg>
